packages/ui-solid/icons/addhome_28.svg

<svg width="28" height="28" viewBox="0 0 28 28" fill="none" xmlns="http://www.w3.org/2000/svg">
<path fill-rule="evenodd" clip-rule="evenodd" d="M14.507 5.36309C14.1738 5.27897 13.8249 5.27897 13.4917 5.36309C13.154 5.44833 12.8175 5.66955 11.7632 6.41939L7.53874 9.42393C6.76227 9.97618 6.5266 10.1543 6.36093 10.3648C6.19753 10.5725 6.0753 10.8094 6.00082 11.0629C5.92531 11.3199 5.91671 11.6152 5.91671 12.568V18.6649C5.91671 19.5125 5.91741 20.0941 5.95424 20.5448C5.99021 20.9851 6.05611 21.2207 6.14275 21.3907C6.34158 21.781 6.65884 22.0982 7.04907 22.297C7.21912 22.3837 7.45472 22.4496 7.89496 22.4856C8.34571 22.5224 8.92729 22.5231 9.7749 22.5231H18.2238C19.0714 22.5231 19.653 22.5224 20.1037 22.4856C20.544 22.4496 20.7796 22.3837 20.9496 22.297C21.3398 22.0982 21.6571 21.781 21.8559 21.3907C21.9426 21.2207 22.0085 20.9851 22.0444 20.5448C22.0813 20.0941 22.082 19.5125 22.082 18.6649V12.568C22.082 11.6152 22.0734 11.3199 21.9979 11.0629C21.9234 10.8094 21.8012 10.5725 21.6378 10.3648C21.4721 10.1543 21.2364 9.97618 20.4599 9.42393L16.2355 6.41939C15.1812 5.66955 14.8446 5.44833 14.507 5.36309ZM13.0511 3.61785C13.6735 3.46072 14.3252 3.46072 14.9476 3.61785C15.6556 3.79659 16.2837 4.24393 17.1446 4.85701C17.1887 4.88843 17.2334 4.92028 17.2788 4.95255L21.5032 7.9571C21.536 7.98042 21.5683 8.0034 21.6003 8.02608C22.2388 8.47977 22.706 8.81167 23.0522 9.25159C23.3574 9.63939 23.5857 10.0819 23.7249 10.5554C23.8827 11.0926 23.8824 11.6656 23.882 12.4489C23.882 12.4881 23.882 12.5278 23.882 12.568V18.7026C23.882 19.5033 23.882 20.1587 23.8385 20.6914C23.7934 21.243 23.6972 21.7418 23.4597 22.2079C23.0883 22.9368 22.4957 23.5295 21.7668 23.9009C21.3007 24.1383 20.8019 24.2345 20.2503 24.2796C19.7176 24.3231 19.0622 24.3231 18.2614 24.3231H9.73724C8.93647 24.3231 8.2811 24.3231 7.74838 24.2796C7.19683 24.2345 6.69798 24.1383 6.23188 23.9009C5.50297 23.5295 4.91034 22.9368 4.53894 22.2079C4.30145 21.7418 4.20528 21.243 4.16022 20.6914C4.11669 20.1587 4.1167 19.5033 4.11671 18.7025L4.11671 12.568C4.11671 12.5278 4.11669 12.4881 4.11668 12.4489C4.11629 11.6656 4.11601 11.0926 4.27382 10.5554C4.41294 10.0819 4.64126 9.63939 4.94648 9.25159C5.29272 8.81168 5.75987 8.47977 6.39841 8.02609C6.43034 8.00341 6.46269 7.98042 6.49548 7.9571L10.7199 4.95255C10.7653 4.92028 10.81 4.88843 10.8541 4.85701C11.715 4.24393 12.3431 3.79659 13.0511 3.61785ZM13.9993 10.0118C14.4964 10.0118 14.8993 10.4148 14.8993 10.9118V14.0048H17.9623C18.4593 14.0048 18.8623 14.4077 18.8623 14.9048C18.8623 15.4019 18.4593 15.8048 17.9623 15.8048H14.8993V18.8977C14.8993 19.3948 14.4964 19.7977 13.9993 19.7977C13.5023 19.7977 13.0993 19.3948 13.0993 18.8977V15.8048H10.0364C9.53936 15.8048 9.13642 15.4019 9.13642 14.9048C9.13642 14.4077 9.53936 14.0048 10.0364 14.0048H13.0993V10.9118C13.0993 10.4148 13.5023 10.0118 13.9993 10.0118Z" fill="#007AFF"/>
</svg>

<svg xmlns="http://www.w3.org/2000/svg" width="28" height="28" fill="none"><path fill="currentColor" fill-rule="evenodd" d="M14.507 5.363a2.1 2.1 0 0 0-1.015 0c-.338.085-.675.307-1.729 1.056L7.54 9.424c-.777.552-1.012.73-1.178.94a2.1 2.1 0 0 0-.36.699c-.076.257-.084.552-.084 1.505v6.097c0 .848 0 1.43.037 1.88.036.44.102.676.189.846.199.39.516.707.906.906.17.087.406.153.846.189.45.036 1.032.037 1.88.037h8.449c.847 0 1.429 0 1.88-.037.44-.036.676-.102.846-.189.39-.199.707-.516.906-.906.087-.17.152-.406.188-.846.037-.45.038-1.033.038-1.88v-6.097c0-.953-.009-1.248-.084-1.505a2.1 2.1 0 0 0-.36-.698c-.166-.21-.402-.389-1.178-.941l-4.225-3.005c-1.054-.75-1.39-.97-1.728-1.056m-1.456-1.745a3.9 3.9 0 0 1 1.897 0c.708.179 1.336.626 2.197 1.239l.134.096 4.224 3.004.097.07c.639.453 1.106.785 1.452 1.225.305.387.534.83.673 1.303.158.538.157 1.11.157 1.894v6.254c0 .8 0 1.456-.044 1.988-.045.552-.14 1.05-.378 1.517a3.87 3.87 0 0 1-1.693 1.693c-.466.237-.965.334-1.517.379-.532.043-1.188.043-1.989.043H9.737c-.8 0-1.456 0-1.989-.043-.551-.046-1.05-.142-1.516-.38a3.87 3.87 0 0 1-1.693-1.692c-.238-.466-.334-.965-.379-1.517-.043-.532-.043-1.188-.043-1.988v-6.255c0-.782-.001-1.355.157-1.893.139-.473.367-.916.672-1.303.347-.44.814-.772 1.452-1.226l.097-.069 4.225-3.004.134-.096c.861-.613 1.49-1.06 2.197-1.24M14 10.012a.9.9 0 0 1 .9.9v3.093h3.063a.9.9 0 0 1 0 1.8H14.9v3.093a.9.9 0 1 1-1.8 0v-3.093h-3.063a.9.9 0 1 1 0-1.8H13.1v-3.093a.9.9 0 0 1 .9-.9" clip-rule="evenodd"/></svg>
